X: 17
T: Miss Monaghan
Z: tziguk
S: https://thesession.org/tunes/471#setting53490
R: reel
M: 4/4
L: 1/8
K: Dmaj
|:D2(3 FED FAAd|B2BA FABc|d2 dB ABde|fede fe e2|
D2 (3FED FAAd|B2 BA FABc|d2 dB ABdB|AFEG FD D2:|
|:faab afdf|g2 fg edBc|d2 dB ABde|fede fe e2|
faab afdf|gefd edBc|d2 dB ABdB|AFEG FD D2:|

%-------------------- TUNE SEPARATOR --------------------%

